assets/svgs/misc-grey/MiscGrey86.svg

<svg width="52" height="52" viewBox="0 0 52 52" fill="none" xmlns="http://www.w3.org/2000/svg">
<rect opacity="0.01" width="52" height="52" fill="black"/>
<path fill-rule="evenodd" clip-rule="evenodd" d="M27.0833 50.1583C28.8167 50.1583 30.225 48.9667 30.55 47.2333L31.0917 43.55C31.2 43.0083 31.7417 42.4667 31.9583 42.3583C32.7167 42.0333 34.5583 41.8167 34.8833 41.925L37.8083 44.0917C39.1083 45.0667 41.0583 44.9583 42.25 43.7667L43.875 42.1417C45.0667 40.95 45.175 39 44.2 37.7L42.0333 34.775C41.7083 34.3417 41.7083 33.5833 41.8167 33.3667C42.25 32.6083 43.3333 31.2 43.6583 30.9833L47.3417 30.4417C48.9667 30.225 50.2667 28.7083 50.2667 27.0833V24.8083C50.2667 23.1833 48.9667 21.6667 47.3417 21.45L43.6583 20.9083C43.1167 20.8 42.575 20.2583 42.4667 20.0417C42.1417 19.2833 41.925 17.4417 42.0333 17.1167L44.2 14.1917C45.175 12.8917 45.0667 10.9417 43.875 9.75L42.25 8.125C41.0583 6.93334 39.1083 6.825 37.8083 7.8L34.8833 9.96667C34.45 10.2917 33.6917 10.2917 33.475 10.1833C32.7167 9.75 31.3083 8.66667 30.9833 8.34167L30.4417 4.65834C30.225 3.03334 28.7083 1.73334 27.0833 1.73334H24.8083C23.1833 1.73334 21.6667 3.03334 21.45 4.65834L20.9083 8.34167C20.8 8.88334 20.2583 9.425 20.0417 9.53334C19.2833 9.85834 17.4417 10.075 17.1167 9.96667L14.1917 7.8C12.8917 6.825 10.9417 6.93334 9.75001 8.125L8.12501 9.75C6.93334 10.9417 6.82501 12.8917 7.80001 14.1917L9.96667 17.1167C10.2917 17.55 10.2917 18.3083 10.1833 18.525C9.878 19.0594 9.24991 19.9165 8.82972 20.4898L8.8297 20.4899L8.82969 20.4899C8.65358 20.7302 8.514 20.9207 8.45001 21.0167L4.76667 21.5583C3.14167 21.775 1.84167 23.2917 1.84167 24.9167V27.0833C1.84167 28.7083 3.14167 30.225 4.76667 30.4417L8.45001 30.9833C8.99167 31.0917 9.53334 31.6333 9.64167 31.85C9.96667 32.6083 10.1833 34.45 10.075 34.775L7.90834 37.7C6.93334 39 7.04167 40.95 8.23334 42.1417L9.85834 43.7667C11.05 44.9583 13 45.0667 14.3 44.0917L17.225 41.925C17.6583 41.6 18.4167 41.6 18.6333 41.7083C19.3917 42.1417 20.8 43.225 21.0167 43.55L21.5583 47.2333C21.775 48.8583 23.2917 50.1583 24.9167 50.1583H27.0833ZM19.825 39.4333C19.2833 39.2167 18.7417 39.1083 18.2 39.1083C17.225 39.1083 16.25 39.325 15.4917 39.975L12.5667 42.1417C12.2417 42.25 11.8083 42.25 11.5917 42.0333L9.96667 40.4083C9.75001 40.1917 9.75001 39.7583 10.075 39.325L12.2417 36.4C13.4333 34.775 12.2417 30.9833 12.2417 30.9833C11.8083 29.7917 10.4 28.6 8.88334 28.3833L5.20001 27.8417C4.87501 27.7333 4.55001 27.4083 4.55001 27.0833V24.9167C4.55001 24.5917 4.87501 24.1583 5.20001 24.1583L8.88334 23.6167C10.8333 23.2917 12.675 19.7167 12.675 19.7167C13.2167 18.525 13 16.6833 12.1333 15.4917L9.96667 12.5667C9.75001 12.2417 9.75001 11.8083 9.96667 11.5917L11.5917 9.96667C11.8083 9.75 12.2417 9.75 12.675 10.075L15.6 12.2417C17.225 13.4333 21.0167 12.2417 21.0167 12.2417C22.2083 11.8083 23.4 10.4 23.6167 8.88334L24.1583 5.2C24.2667 4.875 24.5917 4.55 24.9167 4.55H26.975C27.3 4.55 27.7333 4.875 27.7333 5.2L28.275 8.88334C28.6 10.8333 32.175 12.675 32.175 12.675C33.3667 13.2167 35.2083 13 36.4 12.1333L39.4333 9.96667C39.7583 9.75 40.1917 9.75 40.1917 10.075L41.8167 11.7C42.0333 11.9167 42.1417 12.4583 41.925 12.675L39.7583 15.6C38.5667 17.225 39.7583 21.0167 39.7583 21.0167C40.1917 22.2083 41.6 23.4 43.1167 23.6167L46.8 24.1583C47.125 24.2667 47.45 24.5917 47.45 24.9167V26.975C47.45 27.3 47.125 27.7333 46.8 27.7333L43.1167 28.275C41.1667 28.6 39.325 32.175 39.325 32.175C38.7833 33.3667 39 35.2083 39.8667 36.4L42.0333 39.325C42.1417 39.65 42.1417 40.0833 41.925 40.3L40.3 41.925C40.0833 42.1417 39.5417 42.25 39.325 42.0333L36.4 39.8667C34.775 38.675 30.9833 39.8667 30.9833 39.8667C29.7917 40.3 28.6 41.7083 28.3833 43.225L27.8417 46.9083C27.7333 47.2333 27.4083 47.5583 27.0833 47.5583H25.025C24.7 47.5583 24.2667 47.2333 24.2667 46.9083L23.725 43.225C23.4 41.275 19.825 39.4333 19.825 39.4333ZM26 33.2583C24.05 33.2583 22.2083 32.5 20.9083 31.0917C19.6083 29.7917 18.7417 27.8417 18.7417 26C18.7417 24.05 19.5 22.2083 20.9083 20.9083C22.2083 19.6083 24.1583 18.7417 26 18.7417C27.95 18.7417 29.7917 19.5 31.0917 20.9083C32.3917 22.2083 33.2583 24.1583 33.2583 26C33.2583 27.95 32.5 29.7917 31.0917 31.0917C29.7917 32.5 27.95 33.2583 26 33.2583ZM22.75 22.75C23.6167 21.9917 24.8083 21.45 26 21.45C27.1917 21.45 28.3833 21.9917 29.25 22.75C30.0083 23.6167 30.55 24.8083 30.55 26C30.55 27.1917 30.1167 28.3833 29.25 29.25C28.3833 30.0083 27.1917 30.55 26 30.55C24.8083 30.55 23.6167 30.1167 22.75 29.25C21.9917 28.3833 21.45 27.1917 21.45 26C21.45 24.8083 21.8833 23.6167 22.75 22.75Z" fill="black"/>
</svg>

<svg xmlns="http://www.w3.org/2000/svg" fill="none" viewBox="0 0 52 52"><path fill="#000" d="M0 0h52v52H0z" opacity=".01"/><path fill="#000" fill-rule="evenodd" d="M27.083 50.158c1.734 0 3.142-1.191 3.467-2.925l.542-3.683c.108-.542.65-1.083.866-1.192.759-.325 2.6-.541 2.925-.433l2.925 2.167c1.3.975 3.25.866 4.442-.325l1.625-1.625c1.192-1.192 1.3-3.142.325-4.442l-2.167-2.925c-.325-.433-.325-1.192-.216-1.408.433-.759 1.516-2.167 1.841-2.384l3.684-.541c1.625-.217 2.925-1.734 2.925-3.359v-2.275c0-1.625-1.3-3.141-2.925-3.358l-3.684-.542c-.541-.108-1.083-.65-1.191-.866-.325-.759-.542-2.6-.434-2.925l2.167-2.925c.975-1.3.867-3.25-.325-4.442L42.25 8.125c-1.192-1.192-3.142-1.3-4.442-.325l-2.925 2.167c-.433.325-1.191.325-1.408.216-.758-.433-2.167-1.516-2.492-1.841l-.541-3.684c-.217-1.625-1.734-2.925-3.359-2.925h-2.275c-1.625 0-3.141 1.3-3.358 2.925l-.542 3.684c-.108.541-.65 1.083-.866 1.191-.759.325-2.6.542-2.925.434L14.192 7.8c-1.3-.975-3.25-.867-4.442.325L8.125 9.75c-1.192 1.192-1.3 3.142-.325 4.442l2.167 2.925c.325.433.325 1.191.216 1.408-.305.534-.933 1.392-1.353 1.965-.176.24-.316.43-.38.527l-3.683.541c-1.625.217-2.925 1.734-2.925 3.359v2.166c0 1.625 1.3 3.142 2.925 3.359l3.683.541c.542.109 1.083.65 1.192.867.325.758.541 2.6.433 2.925L7.908 37.7c-.975 1.3-.866 3.25.325 4.442l1.625 1.625c1.192 1.191 3.142 1.3 4.442.325l2.925-2.167c.433-.325 1.192-.325 1.408-.217.759.434 2.167 1.517 2.384 1.842l.541 3.683c.217 1.625 1.734 2.925 3.359 2.925h2.166zm-7.258-10.725a4.348 4.348 0 00-1.625-.325c-.975 0-1.95.217-2.708.867l-2.925 2.167c-.325.108-.759.108-.975-.109l-1.625-1.625c-.217-.216-.217-.65.108-1.083l2.167-2.925c1.191-1.625 0-5.417 0-5.417-.434-1.191-1.842-2.383-3.359-2.6L5.2 27.842c-.325-.109-.65-.434-.65-.759v-2.166c0-.325.325-.759.65-.759l3.683-.541c1.95-.325 3.792-3.9 3.792-3.9.542-1.192.325-3.034-.542-4.225l-2.166-2.925c-.217-.325-.217-.759 0-.975l1.625-1.625c.216-.217.65-.217 1.083.108l2.925 2.167c1.625 1.191 5.417 0 5.417 0 1.191-.434 2.383-1.842 2.6-3.359l.541-3.683c.109-.325.434-.65.759-.65h2.058c.325 0 .758.325.758.65l.542 3.683c.325 1.95 3.9 3.792 3.9 3.792 1.192.542 3.033.325 4.225-.542l3.033-2.166c.325-.217.759-.217.759.108l1.625 1.625c.216.217.325.758.108.975L39.758 15.6c-1.191 1.625 0 5.417 0 5.417.434 1.191 1.842 2.383 3.359 2.6l3.683.541c.325.109.65.434.65.759v2.058c0 .325-.325.758-.65.758l-3.683.542c-1.95.325-3.792 3.9-3.792 3.9-.542 1.192-.325 3.033.542 4.225l2.166 2.925c.109.325.109.758-.108.975L40.3 41.925c-.217.217-.758.325-.975.108L36.4 39.867c-1.625-1.192-5.417 0-5.417 0-1.191.433-2.383 1.841-2.6 3.358l-.541 3.683c-.109.325-.434.65-.759.65h-2.058c-.325 0-.758-.325-.758-.65l-.542-3.683c-.325-1.95-3.9-3.792-3.9-3.792zM26 33.258c-1.95 0-3.792-.758-5.092-2.166-1.3-1.3-2.166-3.25-2.166-5.092 0-1.95.758-3.792 2.166-5.092 1.3-1.3 3.25-2.166 5.092-2.166 1.95 0 3.792.758 5.092 2.166 1.3 1.3 2.166 3.25 2.166 5.092 0 1.95-.758 3.792-2.166 5.092-1.3 1.408-3.142 2.166-5.092 2.166zM22.75 22.75c.867-.758 2.058-1.3 3.25-1.3 1.192 0 2.383.542 3.25 1.3.758.867 1.3 2.058 1.3 3.25 0 1.192-.433 2.383-1.3 3.25-.867.758-2.058 1.3-3.25 1.3-1.192 0-2.383-.433-3.25-1.3-.758-.867-1.3-2.058-1.3-3.25 0-1.192.433-2.383 1.3-3.25z" clip-rule="evenodd"/></svg>
